X: 1
T: Jagersquadrille
C: Trad.
M: 2/4
L: 1/8
K: G
B2 c2 | B/c/B/A/ GD | GG/A/ BD | GG/A/ BD | B2 c2 | B/c/B/A/ GD | GG/B/ d>c | BA G2 :|]
Bd gd | BB/A/ GD | GG/A/ BD | GG/A/ BD | Bd gd | BB/A/ GD | GB d>c | BA G2 :|]
A2 B2 | cc/B/ cB | B2 c2 | dd/c/ dB | A2 B2 | cc/B/ cB | BB AA | G2 z2 :|]
B2 c2 | B/c/B/A/ GD | GG/A/ BD | GG/A/ BD | B2 c2 | B/c/B/A/ GD | GG/B/ d>c | BA G2 :|]
Bd gd | BB/A/ GD | GG/A/ BD | GG/A/ BD | Bd gd | BB/A/ GD | GB d>c | BA G2 :|]
A2 B2 | cc/B/ cB | B2 c2 | dd/c/ dB | A2 B2 | cc/B/ cB | BB AA | G2 z2 :|]
B2 c2 | B/c/B/A/ GD | GG/A/ BD | GG/A/ BD | B2 c2 | B/c/B/A/ GD | GG/B/ d>c | BA G2 :|]
Bd gd | BB/A/ GD | GG/A/ BD | GG/A/ BD | Bd gd | BB/A/ GD | GB d>c | BA G2 :|]
A2 B2 | cc/B/ cB | B2 c2 | dd/c/ dB | A2 B2 | cc/B/ cB | BB AA | G2 z2 :|]
B2 c2 | B/c/B/A/ GD | GG/A/ BD | GG/A/ BD | B2 c2 | B/c/B/A/ GD | GG/B/ d>c | BA G2 :|]
Bd gd | BB/A/ GD | GG/A/ BD | GG/A/ BD | Bd gd | BB/A/ GD | GB d>c | BA G2 :|]
A2 B2 | cc/B/ cB | B2 c2 | dd/c/ dB | A2 B2 | cc/B/ cB | BB AA | G2 z2 :|]
